Optyma small dark.svg

<svg xmlns="http://www.w3.org/2000/svg" xmlns:xlink="http://www.w3.org/1999/xlink" viewBox="0 0 859 752.5" width="1145.333" height="1003.333" xmlns:v="https://vecta.io/nano"><style><![CDATA[.B{stroke:#262626}.C{stroke-miterlimit:3}.D{stroke-width:4}.E{stroke-linejoin:round}.F{stroke-width:3}.G{fill:#8a8a8a}]]></style><g stroke-linecap="round" class="C D E"><path vector-effect="non-scaling-stroke" stroke="#009dff" d="M180.8 699h151.6"/><g fill="none"><path d="M141 699H2V141h334" vector-effect="non-scaling-stroke" stroke="#fd8700"/><path d="M820 407v292H466" vector-effect="non-scaling-stroke" stroke="#00d080"/><path d="M820 403.93V141H466" vector-effect="non-scaling-stroke" stroke="red"/></g></g><path d="M329.5 559.5h142V751h-142V559.5z" fill="#404040" vector-effect="non-scaling-stroke" class="B C E F"/><linearGradient id="A" x1="-.006" y1=".513" x2="1" y2=".5"><stop offset="0%" stop-color="#009dff"/><stop offset="100%" stop-color="#00d080"/></linearGradient><g class="C E"><path d=" M 330.969 699 L 365.5 699 L 401.25 672.25 L 401.25 724.75 L 436.25 699 L 470.023 699" fill="none" vector-effect="non-scaling-stroke" stroke="url(#A)" class="D"/><g class="B F"><path vector-effect="non-scaling-stroke" d="M329.5 647.4h142"/><path d="M329.5 1.5h142V193h-142V1.5z" fill="#404040" vector-effect="non-scaling-stroke"/><path vector-effect="non-scaling-stroke" d="M329.5 89.4h142"/></g></g><linearGradient id="B" x1="-.006" y1=".513" x2="1" y2=".5"><stop offset="0%" stop-color="#fd8700"/><stop offset="100%" stop-color="red"/></linearGradient><g class="C E"><path d=" M 330.969 141 L 365.5 141 L 401.25 114.25 L 401.25 166.75 L 436.25 141 L 470.023 141" fill="none" vector-effect="non-scaling-stroke" stroke="url(#B)" class="D"/><g stroke-width="2" class="B G"><path d="M157.023 699.053l6.521 3.656-6.521 10.143-6.381-10.143 6.381-3.656z" vector-effect="non-scaling-stroke"/><path d="M131.077 713.766v-29.532l51.891 29.532v-29.532l-51.891 29.532z" vector-effect="non-scaling-stroke"/></g></g><mask id="C"><circle vector-effect="non-scaling-stroke" cx="820.035" cy="407" r="35.75" fill="#fff"/></mask><g class="G"><circle vector-effect="non-scaling-stroke" cx="820.035" cy="407" r="35.75"/><circle vector-effect="non-scaling-stroke" cx="820.035" cy="407" r="35.75" mask="url(#C)" stroke-width="6" class="B"/></g><mask id="D"><path d="M846.992 383.438c10.52 12.173 12.662 31.605.473 46.492q-13.624-55.83-13.5-55.782c5.12 2.01 9.535 5.25 13.027 9.29z" fill="#fff"/></mask><path d="M846.992 383.438c10.52 12.173 12.662 31.605.473 46.492q-13.624-55.83-13.5-55.782c5.12 2.01 9.535 5.25 13.027 9.29z" fill="none" mask="url(#D)" vector-effect="non-scaling-stroke" class="B C D"/><mask id="E"><path d="M792.522 429.93q13.625-55.83 13.5-55.782c-20.546 8.064-29.734 35.954-13.5 55.782z" fill="#fff"/></mask><g class="B"><path d="M792.522 429.93q13.625-55.83 13.5-55.782c-20.546 8.064-29.734 35.954-13.5 55.782z" fill="none" mask="url(#E)" vector-effect="non-scaling-stroke" class="C D"/><circle vector-effect="non-scaling-stroke" cx="400.5" cy="45" r="32" class="F G"/></g><g fill="#262626"><path d="M401.26 36.78C399.63 24.34 390.18 20 381.9 24.36c-3.89 2.07-5.8 8.95-1.4 12.64 4.16 3.44 8.57.76 12.16 5.18a8.24 8.24 0 0 1 8.6-5.4z"/><use xlink:href="#G"/><path d="M407.33 49.63C419.05 54.2 427.4 48 427.5 38.68c.08-4.39-5.07-9.42-10.43-7.29-5 2-4.78 7.14-10.38 8.15a8.25 8.25 0 0 1 .64 10.09z"/><circle vector-effect="non-scaling-stroke" cx="400.5" cy="45" r="5.68"/></g><circle vector-effect="non-scaling-stroke" cx="400.5" cy="604" r="32" class="B F G"/><g fill="#262626"><path d="M401.26 595.78c-1.63-12.44-11.08-16.78-19.36-12.42-3.89 2.07-5.8 8.95-1.4 12.64 4.16 3.44 8.57.76 12.16 5.18a8.24 8.24 0 0 1 8.6-5.4z"/><use xlink:href="#G" y="559"/><path d="M407.33 608.63c11.72 4.57 20.07-1.63 20.17-10.95.08-4.39-5.07-9.42-10.43-7.29-5 2-4.78 7.14-10.38 8.15a8.25 8.25 0 0 1 .64 10.09z"/><circle vector-effect="non-scaling-stroke" cx="400.5" cy="604" r="5.68"/></g><defs ><path id="G" d="M393.06 48.66c-9.72 7.93-8.39 18.25-.31 23 3.82 2.21 10.68.22 11.45-5.5.73-5.35-3.89-7.68-2-13a8.28 8.28 0 0 1-9.14-4.5z"/></defs></svg>

<?xml version="1.0" encoding="UTF-8" standalone="no"?><!-- Generator: Gravit.io --><svg xmlns="http://www.w3.org/2000/svg" xmlns:xlink="http://www.w3.org/1999/xlink" style="isolation:isolate" viewBox="0 0 859 752.5" width="859pt" height="752.5pt"><line x1="180.8" y1="699" x2="332.4" y2="699" vector-effect="non-scaling-stroke" stroke-width="4" stroke="rgb(0,157,255)" stroke-linejoin="round" stroke-linecap="round" stroke-miterlimit="3"/><path d=" M 141 699 L 2 699 L 2 141 L 336 141" fill="none" vector-effect="non-scaling-stroke" stroke-width="4" stroke="rgb(253,135,0)" stroke-linejoin="round" stroke-linecap="round" stroke-miterlimit="3"/><path d=" M 820 407 L 820 699 L 466 699" fill="none" vector-effect="non-scaling-stroke" stroke-width="4" stroke="rgb(0,208,128)" stroke-linejoin="round" stroke-linecap="round" stroke-miterlimit="3"/><path d=" M 820 403.93 L 820 141 L 466 141" fill="none" vector-effect="non-scaling-stroke" stroke-width="4" stroke="rgb(255,0,0)" stroke-linejoin="round" stroke-linecap="round" stroke-miterlimit="3"/><g><path d=" M 329.5 559.5 L 471.5 559.5 L 471.5 751 L 329.5 751 L 329.5 559.5 Z " fill="rgb(64,64,64)" vector-effect="non-scaling-stroke" stroke-width="3" stroke="rgb(38,38,38)" stroke-linejoin="round" stroke-linecap="round" stroke-miterlimit="3"/><linearGradient id="_lgradient_22" x1="-0.006194690265487246" y1="0.5130952380952357" x2="1" y2="0.4999999999999992"><stop offset="0%" stop-opacity="1" style="stop-color:rgb(0,157,255)"/><stop offset="100%" stop-opacity="1" style="stop-color:rgb(0,208,128)"/></linearGradient><path d=" M 330.969 699 L 365.5 699 L 401.25 672.25 L 401.25 724.75 L 436.25 699 L 470.023 699" fill="none" vector-effect="non-scaling-stroke" stroke-width="4" stroke="url(#_lgradient_22)" stroke-linejoin="round" stroke-linecap="butt" stroke-miterlimit="3"/><line x1="329.5" y1="647.4" x2="471.5" y2="647.4" vector-effect="non-scaling-stroke" stroke-width="3" stroke="rgb(38,38,38)" stroke-linejoin="round" stroke-linecap="butt" stroke-miterlimit="3"/></g><g><path d=" M 329.5 1.5 L 471.5 1.5 L 471.5 193 L 329.5 193 L 329.5 1.5 Z " fill="rgb(64,64,64)" vector-effect="non-scaling-stroke" stroke-width="3" stroke="rgb(38,38,38)" stroke-linejoin="round" stroke-linecap="round" stroke-miterlimit="3"/><line x1="329.5" y1="89.4" x2="471.5" y2="89.4" vector-effect="non-scaling-stroke" stroke-width="3" stroke="rgb(38,38,38)" stroke-linejoin="round" stroke-linecap="butt" stroke-miterlimit="3"/><linearGradient id="_lgradient_23" x1="-0.006194690265487246" y1="0.5130952380952357" x2="1" y2="0.4999999999999992"><stop offset="0%" stop-opacity="1" style="stop-color:rgb(253,135,0)"/><stop offset="100%" stop-opacity="1" style="stop-color:rgb(255,0,0)"/></linearGradient><path d=" M 330.969 141 L 365.5 141 L 401.25 114.25 L 401.25 166.75 L 436.25 141 L 470.023 141" fill="none" vector-effect="non-scaling-stroke" stroke-width="4" stroke="url(#_lgradient_23)" stroke-linejoin="round" stroke-linecap="butt" stroke-miterlimit="3"/></g><g><path d=" M 157.023 699.053 L 163.544 702.709 L 157.023 712.852 L 150.642 702.709 L 157.023 699.053 Z " fill="rgb(138,138,138)" vector-effect="non-scaling-stroke" stroke-width="2" stroke="rgb(38,38,38)" stroke-linejoin="round" stroke-linecap="round" stroke-miterlimit="3"/><path d=" M 131.077 713.766 L 131.077 684.234 L 182.968 713.766 L 182.968 684.234 L 131.077 713.766 Z " fill="rgb(138,138,138)" vector-effect="non-scaling-stroke" stroke-width="2" stroke="rgb(38,38,38)" stroke-linejoin="round" stroke-linecap="round" stroke-miterlimit="3"/></g><g><circle vector-effect="non-scaling-stroke" cx="820.0351769398842" cy="407.0000254695559" r="35.75" fill="rgb(138,138,138)" stroke-width="3" stroke="rgb(38,38,38)" stroke-linejoin="miter" stroke-linecap="square" stroke-miterlimit="3"/><mask id="_mask_tF1bvDt2naIxFv7kSLO2NivNQcy4wNh2"><path d=" M 846.992 383.438 C 857.512 395.611 859.654 415.043 847.465 429.93 Q 833.841 374.1 833.965 374.148 C 839.085 376.158 843.5 379.398 846.992 383.438 Z " fill="white" stroke="none"/></mask><path d=" M 846.992 383.438 C 857.512 395.611 859.654 415.043 847.465 429.93 Q 833.841 374.1 833.965 374.148 C 839.085 376.158 843.5 379.398 846.992 383.438 Z " fill="none"/><path d=" M 846.992 383.438 C 857.512 395.611 859.654 415.043 847.465 429.93 Q 833.841 374.1 833.965 374.148 C 839.085 376.158 843.5 379.398 846.992 383.438 Z " fill="none" mask="url(#_mask_tF1bvDt2naIxFv7kSLO2NivNQcy4wNh2)" vector-effect="non-scaling-stroke" stroke-width="4" stroke="rgb(38,38,38)" stroke-linejoin="miter" stroke-linecap="square" stroke-miterlimit="3"/><mask id="_mask_Wbs1yPQMsT4Fz5AYufqlBGWyDXMgFYWy"><path d=" M 792.522 429.93 Q 806.147 374.1 806.022 374.148 C 785.476 382.212 776.288 410.102 792.522 429.93 Z " fill="white" stroke="none"/></mask><path d=" M 792.522 429.93 Q 806.147 374.1 806.022 374.148 C 785.476 382.212 776.288 410.102 792.522 429.93 Z " fill="none"/><path d=" M 792.522 429.93 Q 806.147 374.1 806.022 374.148 C 785.476 382.212 776.288 410.102 792.522 429.93 Z " fill="none" mask="url(#_mask_Wbs1yPQMsT4Fz5AYufqlBGWyDXMgFYWy)" vector-effect="non-scaling-stroke" stroke-width="4" stroke="rgb(38,38,38)" stroke-linejoin="miter" stroke-linecap="square" stroke-miterlimit="3"/></g><g><circle vector-effect="non-scaling-stroke" cx="400.50002068988374" cy="45" r="32" fill="rgb(138,138,138)" stroke-width="3" stroke="rgb(38,38,38)" stroke-linejoin="miter" stroke-linecap="butt" stroke-miterlimit="4"/><path d=" M 401.26 36.78 C 399.63 24.34 390.18 20 381.9 24.36 C 378.01 26.43 376.1 33.31 380.5 37 C 384.66 40.44 389.07 37.76 392.66 42.18 C 393.945 38.618 397.493 36.39 401.26 36.78 Z " fill="rgb(38,38,38)"/><path d=" M 393.06 48.66 C 383.34 56.59 384.67 66.91 392.75 71.66 C 396.57 73.87 403.43 71.88 404.2 66.16 C 404.93 60.81 400.31 58.48 402.2 53.16 C 398.482 53.934 394.714 52.079 393.06 48.66 Z " fill="rgb(38,38,38)"/><path d=" M 407.33 49.63 C 419.05 54.2 427.4 48 427.5 38.68 C 427.58 34.29 422.43 29.26 417.07 31.39 C 412.07 33.39 412.29 38.53 406.69 39.54 C 409.181 42.363 409.444 46.515 407.33 49.63 Z " fill="rgb(38,38,38)"/><circle vector-effect="non-scaling-stroke" cx="400.50002068988306" cy="44.999999999999936" r="5.680000000000007" fill="rgb(38,38,38)"/></g><g><circle vector-effect="non-scaling-stroke" cx="400.50002068988374" cy="604" r="32" fill="rgb(138,138,138)" stroke-width="3" stroke="rgb(38,38,38)" stroke-linejoin="miter" stroke-linecap="butt" stroke-miterlimit="4"/><path d=" M 401.26 595.78 C 399.63 583.34 390.18 579 381.9 583.36 C 378.01 585.43 376.1 592.31 380.5 596 C 384.66 599.44 389.07 596.76 392.66 601.18 C 393.945 597.618 397.493 595.39 401.26 595.78 Z " fill="rgb(38,38,38)"/><path d=" M 393.06 607.66 C 383.34 615.59 384.67 625.91 392.75 630.66 C 396.57 632.87 403.43 630.88 404.2 625.16 C 404.93 619.81 400.31 617.48 402.2 612.16 C 398.482 612.934 394.714 611.079 393.06 607.66 Z " fill="rgb(38,38,38)"/><path d=" M 407.33 608.63 C 419.05 613.2 427.4 607 427.5 597.68 C 427.58 593.29 422.43 588.26 417.07 590.39 C 412.07 592.39 412.29 597.53 406.69 598.54 C 409.181 601.363 409.444 605.515 407.33 608.63 Z " fill="rgb(38,38,38)"/><circle vector-effect="non-scaling-stroke" cx="400.50002068988306" cy="603.9999999999999" r="5.680000000000007" fill="rgb(38,38,38)"/></g></svg>
